_site/images/verification-page/scalability-icon.svg

<svg fill="none" height="30" viewBox="0 0 30 30" width="30" xmlns="http://www.w3.org/2000/svg"><rect fill="#ff647c" height="30" rx="7" width="30"/><path clip-rule="evenodd" d="m21.1932 8.06667 1.8052 5.86663h1.206v.5334c0 2.0585-1.6747 3.7333-3.7333 3.7333-2.0585 0-3.7333-1.6748-3.7333-3.7333v-.5334h1.206l1.8052-5.86663h-4.1134v11.73333h2.6666v2.1333h1.0667v1.0667h-8.5333v-1.0667h1.0666v-2.1333h2.6667v-11.73333h-4.1134l1.8051 5.86663h1.2061v.5334c0 2.0585-1.6748 3.7333-3.73337 3.7333-2.05856 0-3.73333-1.6748-3.73333-3.7333v-.5334h1.20604l1.80516-5.86663h-1.94453v-1.06667h16.07113v1.06667zm-14.07231 6.93303c.24783 1.2156 1.3253 2.1333 2.61309 2.1333 1.28782 0 2.36522-.9177 2.61312-2.1333zm1.20212-1.0668 1.4112-4.58642 1.41119 4.58642zm4.64599 7.9997h4.2667v-1.0667h-4.2667zm7.5031-12.58612 1.4112 4.58642h-2.8224zm-2.6134 5.65322c.2479 1.2156 1.3253 2.1333 2.6131 2.1333s2.3653-.9177 2.6131-2.1333z" fill="#fff" fill-rule="evenodd"/></svg>

<svg width="30" height="30" viewBox="0 0 30 30" fill="none" xmlns="http://www.w3.org/2000/svg">
<rect width="30" height="30" rx="7" fill="#FF647C"/>
<path fill-rule="evenodd" clip-rule="evenodd" d="M21.1932 8.06667L22.9984 13.9333H24.2044V14.4667C24.2044 16.5252 22.5297 18.2 20.4711 18.2C18.4126 18.2 16.7378 16.5252 16.7378 14.4667V13.9333H17.9438L19.749 8.06667H15.6356V19.8H18.3022V21.9333H19.3689V23H10.8356V21.9333H11.9022V19.8H14.5689V8.06667H10.4555L12.2606 13.9333H13.4667V14.4667C13.4667 16.5252 11.7919 18.2 9.73333 18.2C7.67477 18.2 6 16.5252 6 14.4667V13.9333H7.20604L9.0112 8.06667H7.06667V7H23.1378V8.06667H21.1932ZM7.12089 14.9997C7.36872 16.2153 8.44619 17.133 9.73398 17.133C11.0218 17.133 12.0992 16.2153 12.3471 14.9997H7.12089ZM8.32301 13.9329L9.73421 9.34648L11.1454 13.9329H8.32301ZM12.969 21.9326H17.2357V20.8659H12.969V21.9326ZM20.4721 9.34648L21.8833 13.9329H19.0609L20.4721 9.34648ZM17.8587 14.9997C18.1066 16.2153 19.184 17.133 20.4718 17.133C21.7596 17.133 22.8371 16.2153 23.0849 14.9997H17.8587Z" fill="white"/>
</svg>
